!!!OTL: Quanguo renmin youzhiqi
!!!ARE: Asia, China,ÿGuangdong Huiyang
!! II, 351, 2)
!!!SCT: C1883
!!!YEM: Copyright 1995, estate of Helmut Schaffrath.
**kern
*ICvox
*Ivox
*M2/4
*k[]
*C:
{8dd
8dd
8dd
8dd
=1
8ee
8cc
8dd
16a
16cc
=2
8.dd
16ee
8.cc
16dd
=3
4cc
4a}
=4
{8.dd
16ee
8dd
8cc
=5
16dd
16cc
8a
8.cc
16dd
=6
8.cc
16a
4g}
=7
{8.a
16cc
8dd
8ee
=8
8ee
8g
16cc
16dd
8c
=9
2a}
==
!!!AGN: Xiaodao, Shuochang, Yonghujiege
!!!AMT: simple duple
!!!AIN: vox
!!!EED: Helmut Schaffrath
!!!EEV: 1.0
*-
